docs/img/dist/icon-faq-05.svg

<svg width="16" height="22" viewBox="0 0 16 22" fill="none" xmlns="http://www.w3.org/2000/svg">
<path fill-rule="evenodd" clip-rule="evenodd" d="M9.64999 1.2498L9.04999 1.8498C8.75989 2.11486 8.37737 2.2555 7.98467 2.24147C7.59196 2.22745 7.22044 2.05988 6.94999 1.77481L6.42499 1.17481H3.64999C3.3481 1.17464 3.04926 1.23522 2.77127 1.35296C2.49328 1.47069 2.24183 1.64317 2.03189 1.86011C1.82195 2.07705 1.65781 2.33402 1.54925 2.61572C1.44069 2.89742 1.38993 3.19808 1.39999 3.4998V11.2998H4.17499V20.7498H11.975V11.3748H14.75V3.4998C14.75 2.90307 14.5129 2.33077 14.091 1.90881C13.669 1.48686 13.0967 1.2498 12.5 1.2498H9.64999Z" stroke="#202020" stroke-width="1.425"/>
<path fill-rule="evenodd" clip-rule="evenodd" d="M4.09999 4.6248C4.2989 4.6248 4.48967 4.70382 4.63032 4.84447C4.77097 4.98513 4.84999 5.17589 4.84999 5.3748V12.4998H3.42499V5.2998C3.42499 5.10089 3.50401 4.91013 3.64466 4.76947C3.78531 4.62882 3.97608 4.5498 4.17499 4.5498L4.09999 4.6248ZM7.99999 12.1248C8.1989 12.1248 8.38967 12.2038 8.53032 12.3445C8.67097 12.4851 8.74999 12.6759 8.74999 12.8748V20.3748H7.24999V12.8748C7.24999 12.6759 7.32901 12.4851 7.46966 12.3445C7.61031 12.2038 7.80108 12.1248 7.99999 12.1248Z" fill="#202020"/>
<path d="M8 10.7C8.41421 10.7 8.75 10.3642 8.75 9.94995C8.75 9.53574 8.41421 9.19995 8 9.19995C7.58579 9.19995 7.25 9.53574 7.25 9.94995C7.25 10.3642 7.58579 10.7 8 10.7Z" fill="#D61635"/>
<path d="M8 8.1499C8.41421 8.1499 8.75 7.81412 8.75 7.3999C8.75 6.98569 8.41421 6.6499 8 6.6499C7.58579 6.6499 7.25 6.98569 7.25 7.3999C7.25 7.81412 7.58579 8.1499 8 8.1499Z" fill="#D61635"/>
<path d="M8 5.59985C8.41421 5.59985 8.75 5.26407 8.75 4.84985C8.75 4.43564 8.41421 4.09985 8 4.09985C7.58579 4.09985 7.25 4.43564 7.25 4.84985C7.25 5.26407 7.58579 5.59985 8 5.59985Z" fill="#D61635"/>
<path fill-rule="evenodd" clip-rule="evenodd" d="M12.05 4.6248C12.2356 4.64346 12.4077 4.73064 12.5325 4.86932C12.6573 5.008 12.7259 5.18823 12.725 5.3748V12.4998H11.3V5.2998C11.3 5.10089 11.379 4.91013 11.5197 4.76947C11.6603 4.62882 11.8511 4.5498 12.05 4.5498V4.6248Z" fill="#202020"/>
</svg>

<svg width="16" height="22" fill="none" xmlns="http://www.w3.org/2000/svg"><path clip-rule="evenodd" d="M9.65 1.25l-.6.6a1.5 1.5 0 01-2.1-.075l-.525-.6H3.65A2.25 2.25 0 001.4 3.5v7.8h2.775v9.45h7.8v-9.375h2.775V3.5a2.25 2.25 0 00-2.25-2.25H9.65z" stroke="#202020" stroke-width="1.425"/><path fill-rule="evenodd" clip-rule="evenodd" d="M4.1 4.625a.75.75 0 01.75.75V12.5H3.425V5.3a.75.75 0 01.75-.75l-.075.075zm3.9 7.5a.75.75 0 01.75.75v7.5h-1.5v-7.5a.75.75 0 01.75-.75z" fill="#202020"/><path d="M8 10.7a.75.75 0 100-1.5.75.75 0 000 1.5zm0-2.55a.75.75 0 100-1.5.75.75 0 000 1.5zM8 5.6a.75.75 0 100-1.5.75.75 0 000 1.5z" fill="#D61635"/><path fill-rule="evenodd" clip-rule="evenodd" d="M12.05 4.625a.75.75 0 01.675.75V12.5H11.3V5.3a.75.75 0 01.75-.75v.075z" fill="#202020"/></svg>
